packages/swarm-icons/src/icons/large/Check Circled Selected.svg

<svg xmlns="http://www.w3.org/2000/svg" width="28" height="28" viewBox="0 0 28 28">
  <path fill="#212121" d="M14,25 C7.92486775,25 3,20.0751322 3,14 C3,7.92486775 7.92486775,3 14,3 C20.0751322,3 25,7.92486775 25,14 C25,20.0751322 20.0751322,25 14,25 Z M12.4435182,16.0293047 L10.2071068,13.7928932 C9.81658249,13.4023689 9.18341751,13.4023689 8.79289322,13.7928932 C8.40236893,14.1834175 8.40236893,14.8165825 8.79289322,15.2071068 L11.7928932,18.2071068 C12.20479,18.6190036 12.8801641,18.593066 13.2592566,18.1507914 L19.2592566,11.1507914 C19.6186788,10.7314655 19.5701172,10.1001655 19.1507914,9.7407434 C18.7314655,9.38132125 18.1001655,9.42988278 17.7407434,9.84920863 L12.4435182,16.0293047 Z"/>
</svg>

<svg xmlns="http://www.w3.org/2000/svg" width="28" height="28"><path fill="#212121" d="M14 25C7.925 25 3 20.075 3 14S7.925 3 14 3s11 4.925 11 11-4.925 11-11 11zm-1.556-8.97l-2.237-2.237a1 1 0 10-1.414 1.414l3 3a1 1 0 001.466-.056l6-7a1 1 0 10-1.518-1.302l-5.297 6.18z"/></svg>
